X:1
T:Jesus Leads
T:Jesus Leads
T:John Robson Sweney
T:John Ralston Clements, 1893
T:Public Domain Courtesy of the Cyber Hymnal™
T:Public Domain Courtesy of the Cyber Hymnal™
C:John Robson Sweney
Z:Public Domain
Z:Courtesy of the Cyber Hymnal™
%%score ( 1 2 ) ( 3 4 )
L:1/8
Q:1/4=108
M:3/4
K:G
V:1 treble 
V:2 treble 
V:3 bass 
V:4 bass 
V:1
 Bc | B3 A DA | G4 GA | G2 [DF]2 AB | A2 [DG]2 Bc | B3 A DA | G4 GG | F2 [Fc]2 B>A | G4 GG | %9
w: 1.~Like a|shep- herd, ten- der,|true, Je- sus|leads, Je- sus leads,|* Dai- ly finds|* us pas- tures|new, Je- sus|leads, Je- sus leads;|* If thick|
w: 2.~All a-|long life’s rug- ged|road Je- sus|leads, Je- sus leads,|* Till we reach|* yon blest a-|bode, Je- sus|leads, Je- sus leads;|* All the|
w: 3.~Thro’ the|sun- lit ways of|life Je- sus|leads, Je- sus leads,|* Thro’ the war-|* rings and the|strife Je- sus|leads, Je- sus leads;|* When we|
 A3 ^G [FA]^A | B4 BB | c3 B [Fc]^c | d4 [Gd][Gd] | [Gd]3 [Gd] [Gd][Gc] | (c2 B2) GG | %15
w: mists are o’er the|way, Or the|flock ’mid dan- ger|feeds, He will|watch them lest they|stray, * Je- sus|
w: way, be- fore He’s|trod, And He|now the flock pre-|cedes, Safe in-|to the fold of|God, * Je- sus|
w: reach the Jor- dan’s|tide, Where life’s|boun- dary line re-|cedes, He will|the spread the waves|aside, * Je- sus|
 A2 D2 [DB]>[DA] | [DG]4 |] %17
w: leads, Je- sus leads.||
w: leads, Je- sus leads.||
w: leads, Je- sus leads.||
V:2
 x2 | x6 | x6 | DD x4 | DD x4 | x6 | x6 | DD x4 | (DD D2) x2 | (FF F) x3 | (GG G2) x2 | (FF F) x3 | %12
 (GG G2) x2 | x6 | G4 x2 | (FF D2) x2 | x4 |] %17
V:3
 DE | D3 C CC | B,4 B,C | B,2 [D,A,]2 CD | C2 [G,B,]2 DE | D3 C CC | B,4 B,B, | A,2 [D,E]2 D>C | %8
 B,4 B,B, | C3 B, [D,C]^C | D4 G,G, | A,3 ^G, [D,A,]^A, | B,4 [G,B,][G,B,] | %13
 [B,=F]3 [B,F] [B,F][G,E] | (E2 D2) B,B, | C4 [D,D]>[D,C] | [G,,G,B,]4 |] %17
V:4
 x2 | x6 | x6 | D,D, x4 | G,G, x4 | x6 | x6 | D,D, x4 | (G,G, G,2) x2 | (D,D, D,) x3 | %10
 (G,G, G,2) x2 | (D,D, D,) x3 | (G,G, G,2) x2 | x6 | G,4 x2 | (D,D, D,2) x2 | x4 |] %17

